theme/essential/pix_core/t/copy.svg

<!DOCTYPE svg PUBLIC "-//W3C//DTD SVG 1.1//EN" "http://www.w3.org/Graphics/SVG/1.1/DTD/svg11.dtd" [
	<!ENTITY ns_flows "http://ns.adobe.com/Flows/1.0/">
]><svg xmlns="http://www.w3.org/2000/svg" width="12" height="12" viewBox="0 0 12 12" preserveAspectRatio="xMinYMid meet" overflow="visible"><path d="M4 9h-4v-6.7l2.3-2.3h4.7v2h-.4l-.6.6v-1.6h-2v3h-3v4h3v1zm8-6v9h-7v-6.7l2.3-2.3h4.7zm-1 1h-2v3h-3v4h5v-7z" fill="#999"/></svg>

<!DOCTYPE svg PUBLIC "-//W3C//DTD SVG 1.1//EN" "http://www.w3.org/Graphics/SVG/1.1/DTD/svg11.dtd" [
	<!ENTITY ns_flows "http://ns.adobe.com/Flows/1.0/">
]><svg xmlns="http://www.w3.org/2000/svg" width="12" height="12" viewBox="0 0 12 12" preserveAspectRatio="xMinYMid meet" overflow="visible"><path d="M4 9H0V2.3L2.3 0H7v2h-.4l-.6.6V1H4v3H1v4h3v1zm8-6v9H5V5.3L7.3 3H12zm-1 1H9v3H6v4h5V4z" fill="#999"/></svg>
